images/cursors/remove.svg

<svg width="89" height="24" viewBox="0 0 89 24" fill="none" xmlns="http://www.w3.org/2000/svg">
    <rect width="89" height="24" rx="7" fill="black"/>
    <path d="M23.8217 17V7.54545H27.5518C28.2659 7.54545 28.8752 7.67318 29.38 7.92862C29.8878 8.18099 30.274 8.53954 30.5387 9.00426C30.8065 9.46591 30.9403 10.0091 30.9403 10.6339C30.9403 11.2617 30.8049 11.8018 30.5341 12.2543C30.2633 12.7036 29.8709 13.0483 29.3569 13.2884C28.846 13.5284 28.2274 13.6484 27.5011 13.6484H25.0036V12.0419H27.1779C27.5595 12.0419 27.8765 11.9896 28.1289 11.8849C28.3813 11.7803 28.569 11.6233 28.6921 11.4141C28.8183 11.2048 28.8814 10.9447 28.8814 10.6339C28.8814 10.32 28.8183 10.0553 28.6921 9.83984C28.569 9.62441 28.3797 9.46129 28.1243 9.3505C27.8719 9.23662 27.5534 9.17969 27.1687 9.17969H25.8207V17H23.8217ZM28.9276 12.6974L31.2773 17H29.0707L26.7717 12.6974H28.9276ZM32.353 17V7.54545H38.7237V9.19354H34.3519V11.4464H38.396V13.0945H34.3519V15.3519H38.7422V17H32.353ZM40.3129 7.54545H42.7781L45.3818 13.8977H45.4926L48.0963 7.54545H50.5615V17H48.6226V10.8462H48.5441L46.0974 16.9538H44.7771L42.3303 10.8232H42.2519V17H40.3129V7.54545ZM60.8967 12.2727C60.8967 13.3037 60.7012 14.1809 60.3104 14.9041C59.9226 15.6274 59.3932 16.1798 58.7223 16.5614C58.0545 16.94 57.3035 17.1293 56.4695 17.1293C55.6293 17.1293 54.8752 16.9384 54.2074 16.5568C53.5395 16.1752 53.0117 15.6228 52.6239 14.8995C52.2362 14.1763 52.0423 13.3007 52.0423 12.2727C52.0423 11.2417 52.2362 10.3646 52.6239 9.64134C53.0117 8.91809 53.5395 8.36719 54.2074 7.98864C54.8752 7.60701 55.6293 7.41619 56.4695 7.41619C57.3035 7.41619 58.0545 7.60701 58.7223 7.98864C59.3932 8.36719 59.9226 8.91809 60.3104 9.64134C60.7012 10.3646 60.8967 11.2417 60.8967 12.2727ZM58.87 12.2727C58.87 11.6049 58.77 11.0417 58.57 10.5831C58.373 10.1245 58.0945 9.77675 57.7344 9.53977C57.3743 9.30279 56.9527 9.1843 56.4695 9.1843C55.9863 9.1843 55.5646 9.30279 55.2045 9.53977C54.8445 9.77675 54.5644 10.1245 54.3643 10.5831C54.1674 11.0417 54.0689 11.6049 54.0689 12.2727C54.0689 12.9406 54.1674 13.5038 54.3643 13.9624C54.5644 14.4209 54.8445 14.7687 55.2045 15.0057C55.5646 15.2427 55.9863 15.3612 56.4695 15.3612C56.9527 15.3612 57.3743 15.2427 57.7344 15.0057C58.0945 14.7687 58.373 14.4209 58.57 13.9624C58.77 13.5038 58.87 12.9406 58.87 12.2727ZM63.5523 7.54545L65.8374 14.7287H65.9252L68.2149 7.54545H70.4308L67.1716 17H64.5956L61.3318 7.54545H63.5523ZM71.5688 17V7.54545H77.9395V9.19354H73.5677V11.4464H77.6118V13.0945H73.5677V15.3519H77.958V17H71.5688Z" fill="white"/>
    <path d="M8 12L17 12" stroke="white" stroke-width="2" stroke-linecap="round" stroke-linejoin="round"/>
</svg>

<svg xmlns="http://www.w3.org/2000/svg" width="89" height="24" fill="none"><rect width="89" height="24" fill="#000" rx="7"/><path fill="#fff" d="M23.822 17V7.545h3.73c.714 0 1.323.128 1.828.384.508.252.894.61 1.159 1.075.267.462.401 1.005.401 1.63 0 .628-.135 1.168-.406 1.62-.27.45-.663.794-1.177 1.034-.511.24-1.13.36-1.856.36h-2.497v-1.606h2.174c.381 0 .698-.052.95-.157a1.13 1.13 0 0 0 .564-.47c.126-.21.19-.47.19-.781 0-.314-.064-.579-.19-.794a1.16 1.16 0 0 0-.568-.49c-.252-.113-.57-.17-.955-.17H25.82V17h-2Zm5.106-4.303L31.278 17H29.07l-2.3-4.303h2.157ZM32.353 17V7.545h6.37v1.649h-4.371v2.252h4.044v1.649h-4.044v2.257h4.39V17h-6.389Zm7.96-9.455h2.465l2.604 6.353h.11l2.604-6.353h2.466V17h-1.94v-6.154h-.078l-2.447 6.108h-1.32l-2.447-6.13h-.078V17h-1.94V7.545Zm20.584 4.728c0 1.03-.196 1.908-.587 2.631-.387.723-.917 1.276-1.588 1.657-.668.379-1.419.568-2.253.568-.84 0-1.594-.19-2.262-.572-.668-.382-1.195-.934-1.583-1.657-.388-.724-.582-1.6-.582-2.627 0-1.031.194-1.908.582-2.632.388-.723.915-1.274 1.583-1.652.668-.382 1.422-.573 2.262-.573.834 0 1.585.191 2.253.573.671.378 1.2.93 1.588 1.652.391.724.587 1.6.587 2.632Zm-2.027 0c0-.668-.1-1.231-.3-1.69-.197-.459-.476-.806-.836-1.043-.36-.237-.781-.356-1.265-.356-.483 0-.904.119-1.264.356s-.64.585-.84 1.043c-.198.459-.296 1.022-.296 1.69 0 .668.098 1.23.295 1.69.2.458.48.806.84 1.043.36.237.782.355 1.265.355.484 0 .905-.118 1.265-.355.36-.237.639-.585.836-1.044.2-.458.3-1.021.3-1.69Zm4.682-4.728 2.285 7.184h.088l2.29-7.184h2.216L67.17 17h-2.575l-3.264-9.455h2.22ZM71.57 17V7.545h6.37v1.649h-4.371v2.252h4.044v1.649h-4.044v2.257h4.39V17h-6.39Z"/><path stroke="#fff" stroke-linecap="round" stroke-linejoin="round" stroke-width="2" d="M8 12h9"/></svg>
